svg/business/pumpkin_lantern_fill.svg

<?xml version="1.0" encoding="UTF-8"?>
<svg width="24px" height="24px" viewBox="0 0 24 24" version="1.1" xmlns="http://www.w3.org/2000/svg" xmlns:xlink="http://www.w3.org/1999/xlink">
    <title>pumpkin_lantern_fill</title>
    <g id="Icon" stroke="none" stroke-width="1" fill="none" fill-rule="evenodd">
        <g id="Business" transform="translate(-433.000000, -528.000000)">
            <g id="pumpkin_lantern_fill" transform="translate(433.000000, 528.000000)">
                <path d="M24,0 L24,24 L0,24 L0,0 L24,0 Z M12.5935,23.2578 L12.5819,23.2595 L12.5109,23.295 L12.4919,23.2987 L12.4767,23.295 L12.4057,23.2595 C12.3958,23.2564 12.387,23.259 12.3821,23.2649 L12.378,23.2758 L12.3609,23.7031 L12.3659,23.7235 L12.3769,23.7357 L12.4805,23.8097 L12.4953,23.8136 L12.5071,23.8097 L12.6107,23.7357 L12.6233,23.7197 L12.6267,23.7031 L12.6096,23.2758 C12.6076,23.2657 12.601,23.2593 12.5935,23.2578 Z M12.8584,23.1453 L12.8445,23.1473 L12.6598,23.2397 L12.6499,23.2499 L12.6472,23.2611 L12.6651,23.6906 L12.6699,23.7034 L12.6784,23.7105 L12.8793,23.8032 C12.8914,23.8069 12.9022,23.803 12.9078,23.7952 L12.9118,23.7812 L12.8777,23.1665 C12.8753,23.1546 12.8674,23.147 12.8584,23.1453 Z M12.143,23.1473 C12.1332,23.1424 12.1222,23.1453 12.1156,23.1526 L12.1099,23.1665 L12.0758,23.7812 C12.0751,23.7927 12.0828,23.8019 12.0926,23.8046 L12.1083,23.8032 L12.3092,23.7105 L12.3186,23.7024 L12.3225,23.6906 L12.3404,23.2611 L12.3372,23.2485 L12.3278,23.2397 L12.143,23.1473 Z" id="MingCute" fill-rule="nonzero"></path>
                <path d="M13.4825,4.6395 C13.3775,4.81442 13.2897,4.99292 13.219,5.16287 C13.7514,5.3074 14.252,5.54332 14.7118,5.85121 C15.6566,5.23489 16.7505,4.92072 17.8892,5.1215 C19.5617,5.4164 20.7538,6.71247 21.4155,8.29149 C22.0821,9.88223 22.2804,11.8911 21.9165,13.955 C21.5525,16.0189 20.6791,17.8388 19.5086,19.1057 C18.3468,20.3632 16.7833,21.1733 15.1108,20.8784 C14.7343,20.812 14.3781,20.693 14.0455,20.5294 C13.4146,20.8305 12.7256,21 12,21 C11.2744,21 10.5854,20.8305 9.95453,20.5294 C9.6219,20.693 9.26577,20.812 8.88918,20.8784 C7.21672,21.1733 5.65318,20.3632 4.49137,19.1057 C3.32093,17.8389 2.44747,16.019 2.08355,13.9551 C1.71963,11.8911 1.91797,9.88225 2.58454,8.29151 C3.2462,6.71249 4.43835,5.41642 6.11081,5.12152 C7.2495,4.92074 8.34345,5.23491 9.28824,5.85121 C9.84898,5.47571 10.4705,5.20725 11.1362,5.08108 C11.274,4.57117 11.5039,4.04983 11.7675,3.6105 C11.9902,3.23941 12.2725,2.86557 12.6107,2.57244 C12.939,2.28788 13.4142,2 14,2 C14.5523,2 15,2.44772 15,3 C15,3.53932 14.5731,3.97892 14.0387,3.99926 C13.7944,4.12022 13.616,4.41695 13.4825,4.6395 Z M8.50005217,12.598 C8.02177,12.8742 7.41018,12.7103 7.13403,12.232 L6.13403,10.4998982 C5.9318,10.1497 5.96048,9.71207 6.20671,9.39118 C6.45293,9.0703 6.8682,8.92934 7.25888,9.03402 L9.99093,9.76607 C10.3816,9.87075 10.6708,10.2005 10.7236,10.6015 C10.7763,11.0025 10.5824,11.3958 10.2321,11.598 L8.50005217,12.598 Z M16.866,12.232 C16.5898,12.7103 15.9782,12.8742 15.4999,12.598 L13.7679,11.598 C13.4176,11.3958 13.2237,11.0025 13.2764,10.6015 C13.3292,10.2005 13.6184,9.87075 14.0091,9.76607 L16.7411,9.03402 C17.1318,8.92934 17.5471,9.0703 17.7933,9.39118 C18.0395,9.71207 18.0682,10.1497 17.866,10.4998982 L16.866,12.232 Z M9.54909,15.9118 C9.75401,16.0655 10.0408,16.0451 10.2219,15.864 C11.2039,14.8819 12.7962,14.8819 13.7782,15.864 C13.9594,16.0451 14.2461,16.0655 14.451,15.9118 L15.4001,15.2 C15.8419,14.8687 16.4687,14.9582 16.8001,15.4 C17.1314,15.8419 17.0419,16.4687 16.6001,16.8 L15.651,17.5118 C14.6499,18.2627 13.2489,18.1631 12.364,17.2782 C12.163,17.0772 11.8371,17.0772 11.6361,17.2782 C10.7512,18.1631 9.35025,18.2627 8.34909,17.5118 L7.40006,16.8 C6.95823,16.4687 6.86869,15.8419 7.20006,15.4 C7.53143,14.9582 8.15823,14.8687 8.60006,15.2 L9.54909,15.9118 Z" id="形状" fill="#09244B"></path>
            </g>
        </g>
    </g>
</svg>

<svg xmlns="http://www.w3.org/2000/svg" width="24" height="24"><g fill="none" fill-rule="evenodd"><path d="M24 0v24H0V0zM12.594 23.258l-.012.002-.071.035-.02.004-.014-.004-.071-.036c-.01-.003-.019 0-.024.006l-.004.01-.017.428.005.02.01.013.104.074.015.004.012-.004.104-.074.012-.016.004-.017-.017-.427c-.002-.01-.009-.017-.016-.018m.264-.113-.014.002-.184.093-.01.01-.003.011.018.43.005.012.008.008.201.092c.012.004.023 0 .029-.008l.004-.014-.034-.614c-.003-.012-.01-.02-.02-.022m-.715.002a.023.023 0 0 0-.027.006l-.006.014-.034.614c0 .012.007.02.017.024l.015-.002.201-.093.01-.008.003-.011.018-.43-.003-.012-.01-.01z"/><path fill="#09244B" d="M13.483 4.64a4.032 4.032 0 0 0-.264.523c.532.144 1.033.38 1.493.688.945-.616 2.038-.93 3.177-.73 1.673.295 2.865 1.591 3.527 3.17.666 1.591.864 3.6.5 5.664-.364 2.064-1.237 3.884-2.407 5.15-1.162 1.258-2.726 2.068-4.398 1.773a3.97 3.97 0 0 1-1.065-.349c-.631.302-1.32.471-2.046.471-.726 0-1.415-.17-2.045-.47a3.97 3.97 0 0 1-1.066.348c-1.672.295-3.236-.515-4.398-1.772-1.17-1.267-2.044-3.087-2.407-5.15-.364-2.065-.166-4.074.5-5.664.662-1.58 1.854-2.876 3.527-3.17 1.139-.201 2.232.113 3.177.73a4.99 4.99 0 0 1 1.848-.77c.138-.51.368-1.032.632-1.471.222-.372.505-.745.843-1.039C12.939 2.288 13.414 2 14 2a1 1 0 0 1 .039 2c-.245.12-.423.417-.556.64M8.5 12.598a1 1 0 0 1-1.366-.366l-1-1.732a1 1 0 0 1 1.125-1.466l2.732.732a1 1 0 0 1 .241 1.832zm8.366-.366a1 1 0 0 1-1.366.366l-1.732-1a1 1 0 0 1 .241-1.832l2.732-.732a1 1 0 0 1 1.125 1.466zm-7.317 3.68a.515.515 0 0 0 .673-.048 2.515 2.515 0 0 1 3.556 0 .515.515 0 0 0 .673.048l.95-.712a1 1 0 0 1 1.2 1.6l-.95.712a2.515 2.515 0 0 1-3.287-.234.515.515 0 0 0-.728 0 2.515 2.515 0 0 1-3.287.234L7.4 16.8a1 1 0 1 1 1.2-1.6z"/></g></svg>
